X: 2883
T: Barnacle, The
R: mazurka
M: 3/4
K: Dmajor
|:d>B|A2 A>F A>B|d2 d2 d>f|e2 e>^d e>f|a2 a>f e>f|
A2- A>F A>B|d2 d2 (3def|e2- e>^d e>f|d4:|
|:A>d|f2 f>e d>e|f2 f>e d>f|e2 e>c A>c|e2 e2 (3cde|
f2- f>e d>e|f2 f2 (3def|a2 a>f e>f|1 d4:|2 d2- d>A||
|:(3FAd|f2 f2 e>f|d2 d2 d>c|B2 B>A F>A|(3BcB B>A (3FGA|
f2 f2 e>f|d2 d>A d>f|e2- e>^d e>f|d4:|

